X:1
T:Title
%%score { ( 1 3 ) | ( 2 4 ) }
L:1/8
M:3/4
K:C
V:1 treble nm="Grand Piano"
V:3 treble 
V:2 bass 
V:4 bass 
V:1
 z2 z2[Q:1/4=82] CE | [EG]3 [EG] [FA][FG] | [Ec]4 [Gc][Gc] | AA G2 F2 |[M:2/4] E4 |[M:1/4] CE | %6
[M:3/4] [EG]3 [CE] [DF][EG] | A4 AA | [^FA][FA] [FB]2 [Fc]2 |[M:2/4] d4 |[M:1/4] GG | %11
[M:3/4] [Ge]4 z2 | c4 z2 | [Ec]4 z2 | A4 z2 | B3 B [Gc][Gd] | e2- [_Be]2 [Ad]A | GG G2 [DFG]2 | %18
[M:2/4] [CEG]4 |] %19
V:2
 z2 z2 [C,E,][C,G,C] | [C,C]3 [C,C] [F,C][G,B,] | [C,C]4 [E,C][E,C] | %3
 [F,CF][F,CF] [G,B,D]2 [G,B,D]2 |[M:2/4] [C,C]4 |[M:1/4] [C,E,][C,G,C] | %6
[M:3/4] [C,C]3 [C,G,] [C,G,][C,C] | [F,CF]4 [F,CF][F,CF] | [D,C][D,C] [D,B,]2 [D,A,]2 | %9
[M:2/4][K:treble] [G,B,G]4 |[M:1/4] z2 |[M:3/4][K:bass] [C,C]C, C,[C,C] [G,B,][G,B,] | %12
 z A, G,2 z2 | [A,,A,]A,, A,,[A,,A,] [E,^G,][E,G,] | z F, E,2[K:treble] [A,CE][A,CE] | %15
 [G,DF]3 [G,DG][K:bass] [E,C][D,B,] | [C,C]4 [F,C][F,CF] | [G,CE][G,CE] [G,B,D]2 G,,2 | %18
[M:2/4] C,4 |] %19
V:3
 x6 | x6 | x6 | x6 |[M:2/4] x4 |[M:1/4] x2 |[M:3/4] x6 | x6 | x6 |[M:2/4] x4 |[M:1/4] x2 | %11
[M:3/4] z C C[Ge] [Fd][Ge] | [CE]F E2 EE | z A, A,[Ec] [DB][Ec] | [A,C]D C2 AA | x6 | G2 z2 z2 | %17
 x6 |[M:2/4] x4 |] %19
V:4
 x6 | x6 | x6 | x6 |[M:2/4] x4 |[M:1/4] x2 |[M:3/4] x6 | x6 | x6 |[M:2/4][K:treble] x4 | %10
[M:1/4] x2 |[M:3/4][K:bass] x6 | C,4 z2 | x6 | A,,4[K:treble] z2 | x4[K:bass] x2 | x6 | x6 | %18
[M:2/4] x4 |] %19

